X:0384
M:6/8
L:1/8
Q:3/8=108
K:D
(3A/B/c/|ded FAd|fga agf|gag Bdg|bc'd' d'c'b|
         aba afd|gBB B2c|ded fga|bee   e2  :|
  ded faf|d=c'c' c'ba|\
  bge afd|ded    d2 :|

